X:243
T:Hélas, Olivier Vasselin
C:Manuscript de Bayeux
C:Arrangement : Michel Falèze
R:Chanson
Z:Transcrit et/ou corrigé par B@D - 2006-04-24
Z:Pour toute observation mailto:-@-
M:C
L:1/8
K:Am
%%staves [ 1 2 3]
V:1
C'4 D'3D' | E'3D' D'2B2 | A4 A'E'E'^F' | G'3A' G'>A' G'F' | E'2D'2C'4 | C'4 D'3D' | E'3D' D'2B2 | A8 |:
A'3G'/^F'/ E'2E'>F' | G'>A' G'>A' G'2=F'2 | E'2D'2C'4 | D'2D'D' E'3F' | E'3D' D'2B2 | A8 |]
V:2
G4 A3A | B3A A2F2 | E4 eBB^c | d3e d>e d^c | B2A2G4 | G4 A3A | B3A A2F2 | E8 |:
e3d/^c/ B2 B>c | d>ec>e d2c2 | B2A2G4 | A2AA B3c | B3A A2F2 | E8 |]
V:3
C,4D,4 | E,4 D,4 | A,,8 | G,,8 | E,,4 C,,4 | C,4 D,4 | E,4 D,4 | A,,8 |:
A,,4 E,,4 | G,,4 G,,4 | E,,4 C,4 | D,4 E,4 | E,4 D,4 | F,,4 A,,,4 |]





%%header "$P0	 $IR 	$P1"
%%footer $D - Éditions Galouvielle - 2009 - À usage librement privé dans le cadre familial

